svg/300/outlined/signal_cellular_add.svg

<svg xmlns="http://www.w3.org/2000/svg" width="48" height="48" viewBox="0 -960 960 960"><path d="m100.001-100.001 759.998-759.998v422.613q-10.539-5.693-21.674-10.077-11.135-4.385-23.71-7.615v-295.923L208.999-145.385h363.77q6.077 12.769 13.846 24.203 7.769 11.433 17.384 21.181H100.001Zm644.615 0v-120h-120v-45.384h120v-120h45.383v120h120v45.384h-120v120h-45.383Zm-535.617-45.384 605.616-605.616Q705.769-642.155 628.269-564.463q-77.5 77.693-143.654 143.654-66.154 65.962-129.949 129.757L208.999-145.385Z"/></svg>

<svg xmlns="http://www.w3.org/2000/svg" width="48" height="48" viewBox="0 -960 960 960"><path d="m100-100 760-760v422.61q-10.54-5.69-21.67-10.07-11.14-4.39-23.72-7.62V-751L209-145.39h363.77q6.08 12.77 13.84 24.21Q594.38-109.75 604-100H100Zm644.62 0v-120h-120v-45.39h120v-120H790v120h120V-220H790v120h-45.38ZM209-145.39 814.61-751Q705.77-642.16 628.27-564.46q-77.5 77.69-143.66 143.65-66.15 65.96-129.94 129.76-63.8 63.79-145.67 145.66Z"/></svg>
